X:120
T:The humours of Tulla
R:Reel
O:Ireland
S:Music from Ireland Vol. 3
B:Music from Ireland Vol. 3
Z:Transcription, slight arr. chords:Mike Long
M:C|
L:1/8
K:D
fe|\
"D"d2 Ad "G"BdAB|"D"d2 fd "A"eABA|"D"d2 Ad "(G)"BdAd|"G"(3(Bcd) ef "A"g2:|
|:fg|\
"D"af ~f2 df ~f2|"D"af ~f2 "A"ge e2|"D"af ~f2 dfed|"G"(3(Bcd) ef "(A)"g2:|
